symbols/web/contact_page/materialsymbolssharp/contact_page_gradN25_24px.svg

<svg xmlns="http://www.w3.org/2000/svg" height="24" width="24"><path d="M12 13.875q.775 0 1.325-.55.55-.55.55-1.325 0-.775-.55-1.325-.55-.55-1.325-.55-.775 0-1.325.55-.55.55-.55 1.325 0 .775.55 1.325.55.55 1.325.55ZM8.125 17.75h7.75v-.45q0-.575-.3-1.038-.3-.462-.85-.712-.65-.25-1.325-.4Q12.725 15 12 15q-.725 0-1.4.15-.675.15-1.325.4-.55.25-.85.712-.3.463-.3 1.038Zm-3.9 4V2.25h9.7l5.85 5.85v13.65ZM6.1 19.875h11.8V8.9l-4.775-4.775H6.1Zm0 0V4.125v15.75Z"/></svg>

<svg xmlns="http://www.w3.org/2000/svg" height="24" width="24"><path d="M12 13.875Q12.775 13.875 13.325 13.325Q13.875 12.775 13.875 12Q13.875 11.225 13.325 10.675Q12.775 10.125 12 10.125Q11.225 10.125 10.675 10.675Q10.125 11.225 10.125 12Q10.125 12.775 10.675 13.325Q11.225 13.875 12 13.875ZM8.125 17.75H15.875V17.3Q15.875 16.725 15.575 16.262Q15.275 15.8 14.725 15.55Q14.075 15.3 13.4 15.15Q12.725 15 12 15Q11.275 15 10.6 15.15Q9.925 15.3 9.275 15.55Q8.725 15.8 8.425 16.262Q8.125 16.725 8.125 17.3ZM4.225 21.75V2.25H13.925L19.775 8.1V21.75ZM6.1 19.875H17.9V8.9L13.125 4.125H6.1ZM6.1 19.875V4.125V8.9V19.875Z"/></svg>
